Newaita/actions/24/edit-find.svg

<?xml version="1.0" encoding="UTF-8"?>
<svg xmlns="http://www.w3.org/2000/svg" xmlns:xlink="http://www.w3.org/1999/xlink" width="24pt" height="24pt" viewBox="0 0 24 24" version="1.1">
<g id="surface1">
<path style=" stroke:none;fill-rule:nonzero;fill:rgb(25.882354%,25.882354%,25.882354%);fill-opacity:1;" d="M 8.929688 1.179688 C 4.53125 1.179688 0.992188 4.71875 0.992188 9.117188 C 0.992188 13.515625 4.53125 17.054688 8.929688 17.054688 C 13.328125 17.054688 16.867188 13.515625 16.867188 9.117188 C 16.867188 4.71875 13.328125 1.179688 8.929688 1.179688 Z M 8.929688 2.667969 C 12.503906 2.667969 15.378906 5.542969 15.378906 9.117188 C 15.378906 12.691406 12.503906 15.566406 8.929688 15.566406 C 5.355469 15.566406 2.480469 12.691406 2.480469 9.117188 C 2.480469 5.542969 5.355469 2.667969 8.929688 2.667969 Z M 8.929688 2.667969 "/>
<path style=" stroke:none;fill-rule:nonzero;fill:rgb(25.882354%,25.882354%,25.882354%);fill-opacity:1;" d="M 12.898438 14.574219 L 14.304688 13.171875 L 15.003906 13.875 L 16.757812 15.628906 L 17.460938 16.328125 L 16.058594 17.734375 Z M 12.898438 14.574219 "/>
<path style=" stroke:none;fill-rule:nonzero;fill:rgb(55.29412%,43.137255%,38.82353%);fill-opacity:1;" d="M 14.917969 16.769531 L 16.496094 15.191406 C 16.835938 14.851562 17.421875 14.890625 17.8125 15.277344 L 22.019531 19.488281 C 22.410156 19.875 22.449219 20.464844 22.109375 20.804688 L 20.53125 22.382812 C 20.191406 22.71875 19.601562 22.679688 19.214844 22.292969 L 15.003906 18.082031 C 14.617188 17.695312 14.578125 17.105469 14.917969 16.769531 Z M 14.917969 16.769531 "/>
</g>
</svg>

<svg xmlns="http://www.w3.org/2000/svg" width="32" height="32" viewBox="0 0 24 24"><path d="M8.93 1.18A7.919 7.919 0 0 0 .992 9.117a7.919 7.919 0 0 0 7.938 7.938 7.919 7.919 0 0 0 7.937-7.938A7.919 7.919 0 0 0 8.93 1.18zm0 1.488a6.433 6.433 0 0 1 6.449 6.45 6.433 6.433 0 0 1-6.45 6.448A6.433 6.433 0 0 1 2.48 9.117a6.433 6.433 0 0 1 6.45-6.449zm0 0" fill="#424242"/><path d="M12.898 14.574l1.407-1.402.699.703 1.754 1.754.703.7-1.402 1.405zm0 0" fill="#424242"/><path d="M14.918 16.77l1.578-1.579c.34-.34.926-.3 1.317.086l4.207 4.211c.39.387.43.977.09 1.317l-1.579 1.578c-.34.336-.93.297-1.316-.09l-4.211-4.211c-.387-.387-.426-.977-.086-1.312zm0 0" fill="#8d6e63"/></svg>
